assets/img/icon-download.svg

<svg width="16" height="16" viewBox="0 0 16 16" fill="none" xmlns="http://www.w3.org/2000/svg">
<g clip-path="url(#clip0_175_1133)">
<path fill-rule="evenodd" clip-rule="evenodd" d="M8.58337 2.08325H6.00004C4.40735 2.08325 3.48757 2.40638 2.94704 2.94692C2.40651 3.48745 2.08337 4.40722 2.08337 5.99992V9.99992C2.08337 11.5926 2.40651 12.5124 2.94704 13.0529C3.48757 13.5935 4.40735 13.9166 6.00004 13.9166H10C11.5927 13.9166 12.5125 13.5935 13.053 13.0529C13.5936 12.5124 13.9167 11.5926 13.9167 9.99992V7.41661H12C10.9585 7.41661 10.0255 7.25269 9.38638 6.6136C8.74729 5.97452 8.58337 5.04149 8.58337 3.99994V2.08325ZM15.4159 6.6306C15.4067 6.43612 15.3234 6.26104 15.1937 6.13291L9.86714 0.806375C9.73115 0.668624 9.54223 0.583252 9.33337 0.583252H9.33325C9.33322 0.583252 9.33319 0.583252 9.33317 0.583252H6.00004C4.2594 0.583252 2.84585 0.926786 1.88638 1.88626C0.926908 2.84572 0.583374 4.25928 0.583374 5.99992V9.99992C0.583374 11.7406 0.926908 13.1541 1.88638 14.1136C2.84585 15.073 4.2594 15.4166 6.00004 15.4166H10C11.7407 15.4166 13.1542 15.073 14.1137 14.1136C15.0732 13.1541 15.4167 11.7406 15.4167 9.99992V6.67266V6.66658C15.4167 6.65452 15.4164 6.64252 15.4159 6.6306ZM10.0834 3.99994V3.14393L12.856 5.91661H12C11.0416 5.91661 10.6413 5.74719 10.447 5.55294C10.2528 5.3587 10.0834 4.95839 10.0834 3.99994ZM5.99996 6.58325C6.41417 6.58325 6.74996 6.91904 6.74996 7.33325V9.52259L6.80296 9.46959C7.09586 9.17669 7.57073 9.17669 7.86362 9.46959C8.15652 9.76248 8.15652 10.2374 7.86362 10.5302L6.53029 11.8636C6.2374 12.1565 5.76252 12.1565 5.46963 11.8636L4.1363 10.5302C3.8434 10.2374 3.8434 9.76248 4.1363 9.46959C4.42919 9.17669 4.90406 9.17669 5.19696 9.46959L5.24996 9.52259V7.33325C5.24996 6.91904 5.58575 6.58325 5.99996 6.58325Z" fill="white"/>
</g>
<defs>
<clipPath id="clip0_175_1133">
<rect width="16" height="16" fill="white"/>
</clipPath>
</defs>
</svg>

<svg width="16" height="16" fill="none" xmlns="http://www.w3.org/2000/svg"><g clip-path="url(#clip0_175_1133)"><path fill-rule="evenodd" clip-rule="evenodd" d="M8.583 2.083H6c-1.593 0-2.512.323-3.053.864-.54.54-.864 1.46-.864 3.053v4c0 1.593.324 2.512.864 3.053.54.54 1.46.864 3.053.864h4c1.593 0 2.512-.323 3.053-.864.54-.54.864-1.46.864-3.053V7.417H12c-1.041 0-1.975-.164-2.614-.803-.639-.64-.803-1.573-.803-2.614V2.083zm6.833 4.548a.748.748 0 00-.222-.498L9.867.806a.748.748 0 00-.534-.223H6c-1.74 0-3.154.344-4.114 1.303C.926 2.846.583 4.26.583 6v4c0 1.74.344 3.154 1.303 4.114.96.959 2.373 1.303 4.114 1.303h4c1.74 0 3.154-.344 4.114-1.303.96-.96 1.303-2.373 1.303-4.114V6.667l-.001-.036zM10.083 4v-.856l2.773 2.773H12c-.958 0-1.359-.17-1.553-.364-.194-.194-.364-.595-.364-1.553zM6 6.583a.75.75 0 01.75.75v2.19l.053-.053a.75.75 0 011.06 1.06L6.53 11.864a.75.75 0 01-1.06 0L4.136 10.53a.75.75 0 111.061-1.06l.053.053v-2.19a.75.75 0 01.75-.75z" fill="#fff"/></g><defs><clipPath id="clip0_175_1133"><path fill="#fff" d="M0 0h16v16H0z"/></clipPath></defs></svg>
